X:290
T: Harry's Loch
S: "Crossroads Dance" [Taylor/Mallinson]
Z: B.Black
R: jig
M: 6/8
L: 1/8
K: G
e2A BAG|EAA ABd|eAA BAB|dGF GBd|
e2A BAG|EAA ABd|efg dBA|BGF GBd :|
g3 efg|eag fed|g3 efg|fd^c def|
|1 g3 efg|eag fed|efg dBA|BGF GBd|
|2 g3 aga|b2a ged|efg dBA|BGF GBd||
